!!!OTL: Tichu haozi
!!!ARE: Asia, China,ÿGansu, Minqin
!! I, 143
!!!SCT: C1424
!!!YEM: Copyright 1995, estate of Helmut Schaffrath.
**kern
*ICvox
*Ivox
*M2/4
*k[b-e-a-]
*E-:
{8b-
8b-
8cc
16b-
16g
=1
8cc
16b-
16g
4f}
=2
{8cc
16g
16b-
16g
16f
16B-
16c
=3
16f
16g
8e-
4f}
=4
{8f
16f
16g
8e-
8c
=5
8f
16f
16g
4f}
=6
{8e-
16d
16c
8B-
16B-
16c
=7
16f
16g
8e-
8f
8c}
=8
{8b-
16g
16b-
16g
16f
16e-
16c
=9
8f
16f
16g
4b-}
=10
{8g
16g
16f
8c
16c
16e-
=11
16f
16g
8e-
4f}
=12
{4f
16g
16f
16e-
16c
=13
8.b-
16g
4f}
=14
{16f
16g
16f
16e-
8c
16B-
16c
=15
8.f
16e-
4f}
=16
{8ff
8ff
16ff
16dd
16cc
16ff
=17
16cc
16b-
16a-
16g
4f}
=18
{8f
8e-
8c
16B-
16c
=19
16f
16g
8e-
4f}
=20
{8b-
16g
16b-
16cc
16b-
16a-
16b-
=21
16cc
16b-
16a-
16g
4f}
=22
{16f
16g
16f
16e-
8c
16B-
16c
=23
16f
16g
8e-
4f}
=24
{8ff
16ff
16cc
16b-
16cc
16ff
16cc
=25
8b-
16a-
16g
8f
8b-}
=26
{8f
8e-
8f
16B-
16c
=27
16f
16g
8e-
4f}
=28
{4f
16g
16f
16e-
16c
=29
8.b-
16g
4f}
=30
{8.cc
16g
8b-
16e-
16c
=31
8.f
16e-
4f}
==
!!!AGN: Haozi
!!!ONB: ESAC (Essen Associative Code) Database: HUANG
!!!AMT: simple duple
!!!AIN: vox
!!!EED: Helmut Schaffrath
!!!EEV: 1.0
*-
